X: 28756
T: My Horse Follows The Horses
R: reel
M: 4/4
K: Gminor
"Gm"BGGF DGGA|"Gm"Bcde "Dm"f2 dc|"Gm"BGGF D3 G|"Dm"DEFG A2 dc|
"Gm"BGGF DGGA|"Gm"Bcde "Dm"f2 dc|"Gm"Bcdg "Dm"fdcA|"Dm"FdcA "Gm"G4:|
"Bb"B2 BA BcdB|"F"AcFB Ac F2|"Bb"B2 (3cde fgfe|"F"cffg afec|
"Bb"B2 BA BcdB|"F"AcFB Ac F2|"Gm"Bcdg "Dm"fdcA|"Dm"FdcA "Gm"G4:|

